icon_installer/data/icons/scalable/actions/show-battery-symbolic.svg

<?xml version="1.0" encoding="UTF-8"?>
<svg height="16px" viewBox="0 0 16 16" width="16px" xmlns="http://www.w3.org/2000/svg">
    <path d="m 5.46875 0 c -0.492188 0 -0.796875 0.214844 -1.03125 0.457031 c -0.234375 0.238281 -0.4375 0.554688 -0.4375 1.027344 v 0.515625 h -2 v 14 h 12 v -14 h -2 v -0.40625 l -0.003906 -0.027344 c -0.023438 -0.429687 -0.179688 -0.734375 -0.414063 -1.011718 c -0.234375 -0.277344 -0.621093 -0.585938 -1.199219 -0.55078175 l 0.054688 -0.00390625 z m 0.53125 2 h 4 v 2 h 2 v 10 h -8 v -10 h 2 z m -1 3 v 2 h 6 v -2 z m 0 3 v 2 h 6 v -2 z m 0 3 v 2 h 6 v -2 z m 0 0" fill="#222222"/>
</svg>

<svg xmlns="http://www.w3.org/2000/svg" width="16" height="16"><path fill="#222" d="M5.469 0c-.492 0-.797.215-1.032.457C4.204.695 4 1.012 4 1.484V2H2v14h12V2h-2v-.406l-.004-.028a1.62 1.62 0 0 0-.414-1.011c-.234-.278-.621-.586-1.2-.551L10.438 0zM6 2h4v2h2v10H4V4h2zM5 5v2h6V5zm0 3v2h6V8zm0 3v2h6v-2zm0 0"/></svg>
